X:1
T:Title
%%score { ( 1 5 ) | 2 | 3 | 4 }
L:1/8
Q:1/4=120
M:6/8
K:C
V:1 bass-8 nm="Part_1"
V:5 bass-8 
V:2 bass 
V:3 bass 
V:4 bass 
V:1
 z!ff! !tenuto!G, z z (G2 E/^C/ | D2) B, G,2 z | G, z z (G2 E/^C/ | D2) B, G,2 z | %4
 !^!B,2 !^!C !^!D2 !^!!tenuto!E | !^!f2 !^!!tenuto!e !^!d2 !^!c | !^!B2 !^!c !^!B2 !^!A | %7
 !^!G2!f! !^!^F !^!G2 !^!A |: !^!B2 z !^!B3- |!>(! BAG ^FG!>)!A | E z E A z A | G z G E z E | %12
 F z F c z c | B z B A z A |!<(! G z G !tenuto!e z !tenuto!e | d z d!<)! c z c | !^!B2 z !^!B3- | %17
!>(! BAG ^FG!>)!A |!<(! E z E A z A | G z G E z!<)! E | DB,D GDG | B!^!G!^!A !^!B!^!c!^!^c | %22
 !^!d z z z3 | z6 :| z !^!G!^!A !^!Bc!^!d |: !^!e3 !^!g3 | !^!A3 !^!B3 | !tenuto!d2 c c3- | %28
 cce cec | B2 !tenuto!f f3- | fBd BdB | c2 !tenuto!e e3- | e!^!G!^!A !^!B!^!c!^!d | !^!e3 !^!g3 | %34
 !^!A3 !^!B3 | !tenuto!d2 c c3- | ccB cd^d | !^!e!^!g!^!e !^!c!^!e!^!c | !^!G6 | !^!G2 z (!^!G3 | %40
 c)GA Bcd :| c2 z c2 z |] z6 | z6 | z6 |[K:F] z6 | z6 | z6 | z6 | z6 | z6 | z6 | z6 | z6 | z6 | %55
 z6 | z6 | z6 | z6 | z6 | z6 | z6 | z2!f! f/-e/ f2 c/-=B/ | c2 !^!A/-!>!^G/ A2 A | %64
 z2 c/-=B/ c2 A/-^G/ | A2 F/-E/ F2 F | z2 F/-E/ F2 A/-^G/ | A2 c/-=B/ c2 x x | %68
 z2 E/-^D/ E2 G/-^F/ | G2 c/-=B/ c2 c | z2 f/-e/ f2 c/-=B/ | c2 A/-^G/ A2 A | z2 c/-=B/ c2 A/-^G/ | %73
 A2 F/-E/ F2 F | z2 F/-E/ F2 A/-^G/ | A2 c/-=B/ c2 c | F2 A/-^G/ A2 c | f2 z z3 | %78
 z2 f/-e/ f2 c/-=B/ | c2 A/-^G/ A2 A | z2 c/-=B/ c2 A/-^G/ | A2 F/-E/ F2 F | z2 F/-E/ F2 A/-^G/ | %83
 A2 c/-=B/ c2 c | z2 E/-^D/ E2 G/-^F/ | G2 c/-=B/ c2 c | z2 f/-e/ f2 c/-=B/ | c2 A/-^G/ A2 A | %88
 z2 c/-=B/ c2 A/-^G/ | A2 F/-E/ F2 F | z2 F/-E/ F2 A/-^G/ | A2 c/-=B/ c2 c | F2 A/-^G/ A2 c | %93
 f2 !^!A !>!!^!c2 !^!f |: !^!e3 !^!d3 | !^!D3 !^!E3 | A2 G F3- | F2 A c2 !tenuto!f | %98
 !tenuto!e z d B3- | B2 G B2 !tenuto!e | d z c A3- | A2 !^!A !^!c2 !^!!tenuto!f | !^!e3 !^!d3 | %103
 !^!D3 !^!E3 | A2 G F3- | !^!F3 F2 ^G | A2 !tenuto!f A3- | A2 B G2 A | F6- | %109
 F2 !^!A !^!c2 !^!!tenuto!f :| F6- |] F2 z z3 |] %112
V:2
 x B, z z _B,3- | =B,2 B, B,2 z | B, z z B,3- | =B,2 B, B,2 A, | B,2 C D2 E | F2 E D2 C | %6
 B,2 C B,2 A, | G, z z z3 |:!f! B,2 z B,3- |!>(! B,2 B, B,2!>)! B, | C2 z E3- | E2 E E2 E | D6 | %13
 D6 | (E6 | D3) C3 | B,2 z B,3- |!>(! B,2 B, B,2!>)! B, | B,2 z E3- | E2 E E2 E | D z z z3 | z6 | %22
 z2 E DCA, | !^!G,2 ^F, !^!G,2 A, :| G,2 z z3 |: PG,6 | A,3 G,3 | G,6- | G,2 G, G,2 G, | B,6- | %30
 B,2 B, B,2 B, | C6- | C2 z B,3 | G,6 | A,3 B,3 | C3 C3 | C6 | EGE CEC | G,6 | G,2 z (B,3 | %40
 G,)G,A, B,CD :| G,2 z G,2 z |] z6 | z6 | z6 |[K:F] z6 | z6 | z6 | z6 | z6 | z6 | z6 | z6 | z6 | %54
 z6 | z6 | z6 | z6 | z6 | z6 | z6 | z6 | z6 | z6 | z6 | z6 | z6 | z7 | z6 | z6 | z6 | z6 | z6 | %73
 z6 | z6 | z6 | z6 | z2 z C2 !^!C | C3 F3 | A,3 A,2 A, | A,3 C3 | F,3- F,2 F, | A,3 F,2 A, | %83
 C3 F3 | E3- E2 ^D | C3 C2 C | C3 F3 | A,3 A,2 A, | A,3 C3 | F,3- F,2 F, | A,3 F,2 A, | F3 E3 | %92
 F6- | F2 A, !>!C2!f! PF |: E6- | EDC B,A,G, | F,6- | F,2 C, F,G,A, | B,6- | B,G,B, DCB, | A,6- | %101
 A,C,F, A,CF | E6- | EDC B,A,G, | F,6 | (=B,6 | C2) z !^!A,3- | A,DC B,2 E, | F,6- | F,2 A, C2 F :| %110
 F,6- |] F,2 z z3 |] %112
V:3
 x PD, z z _D,3- | =D,2 D, D,2 z | D, z z D,3- | =D,2 D, D,2 A,, | B,,2 C, D,2 !^!E, | %5
 F,2 !^!E, D,2 C, | B,,2 C, B,,2 A,, | G,, z z z3 |:!f! G,2 z G,3- |!>(! G,2 G, G,2!>)! G, | %10
 G,2 z G,3- | G,2 G, G,2 G, | G,6 | G,6 | G,6- | G,3 G,3 | G,2 z G,3- |!>(! G,2 G, G,2!>)! G, | %18
 G,2 z G,3- | G,2 G, z2 z | D,,B,,,D,, G,,D,,G,, | B,,!^!G,,!^!A,, !^!B,,!^!C,!^!^C, | D, z z z3 | %23
 z6 :| z6 |: PC,6 | C,3 D,3 | E,6- | E,2 E, E,2 E, | D,6- | D,2 D, D,2 D, | E,6- | E,2 z !^!D,3 | %33
 C,6- | C,3 D,3 | E,6 | !^!_E,6 | =E,6 | E,!^!G,!^!E, !^!C,!^!E,!^!C, | G,,2 z (D,3 | E,3) z3 :| %41
 E,2 z E,2 z |] z6 | z6 | z6 |[K:F] z2 z!p! C,,2 C,, | A,,6- | A,,F,,A,, C,2 A,, | C,6 | A,,6 | %50
 F,,6- | F,,C,,F,, A,,2 F,, | C,,6- | C,,3 C,,2 C,, | A,,6- | A,,F,,A,, C,2 A,, | C,6 | A,,6 | %58
 C,,6- | C,,F,,A,, C,2 C,, | F,,6- | F,,3!mf! C,,2 C,, | A,,6- | A,,!^!F,,!>!A,, C,2 A,, | C,6 | %65
 A,,6 | F,,6- | F,,C,,F,, (3:2:2A,,2 F,, x x | C,,6- | C,,3!f! C,,2 C,, | A,,6- | %71
 A,,!^!F,,!>!A,, C,2 A,, | C,6 | A,,6 | C,,6- | C,,F,,A,, C,2 C,, | F,,6- | F,,3 PC,,2 C,, | %78
 A,,6- | A,,F,,A,, C,2 A,, | C,6 | A,,6 | F,,6- | F,,C,,F,, A,,2 F,, | C,,6- | C,,3 C,,2 C,, | %86
 A,,6- | A,,F,,A,, C,2 A,, | C,6 | A,,6 | C,,6- | C,,F,,A,, C,2 C,, | F,,6- | %93
 F,,2 A,, !>!C,2!f! PF, |: E,6- | E,D,C, B,,A,,G,, | F,,6- | F,,2 C,, F,,G,,A,, | B,,6- | %99
 B,,G,,B,, D,C,B,, | A,,6- | A,,C,,F,, A,,C,F, | E,6- | E,D,C, B,,A,,G,, | F,,6 | (^G,,6 | %106
 A,,2) z C,3- | C,D,C, B,,2 E,, | F,,6- | F,,2 A,, C,2 F, :| F,,6- |] F,,2 z z3 |] %112
V:4
 x PG,, z z G,,3- | G,,2 G,, G,,2 z | G,, z z G,,3- | G,,2 G,, G,,2 A,, | B,,2 C, D,2 E, | %5
 F,2 E, D,2 C, | B,,2 C, B,,2 A,, | G,, z z z3 |:!f! D,,2 z G,,2 z |!>(! D,,2 z G,,2!>)! z | %10
 C,,2 z G,,2 z | C,,2 z G,,2 z | D,,2 z G,,2 z | D,,2 z G,,2 z | C,,2 z (C,,3 | B,,,3 C,,3 | %16
 D,,2) z G,,2 z |!>(! D,,2 z G,,2!>)! z | C,,2 z G,,2 z | C,,2 z (^C,,3 | D,,) z z z3 | z6 | %22
 z2 E, D,C,A,, | G,, z z z3 :| G,,,2 z z3 |: PC,,3 !^!E,,3 | F,,3 D,,3 | C,,3 !^!G,,3 | C,,3 G,,3 | %29
 D,,3 G,,3 | D,,3 G,,3 | C,,3 G,,3 | C,,2 z (G,,3 | C,,3) E,,3 | F,,3 _A,,3 | =A,,3 A,,3 | (_A,,6 | %37
 G,,6) | E,,G,,E,, C,,E,,C,, | G,,2 z G,,2 z | C,,2 z z3 :| C,,2 z C,,2 z |] z6 | z6 | z6 | %45
[K:F] z6 |!p! F,,A,,B,, C,D,E, | F,2 z F,,2 z | F,,A,,B,, C,D,E, | F,2 z F,,2 z | %50
 F,,A,,B,, C,D,E, | F,2 z F,,2 z | !tenuto!C,,E,,F,, G,,A,,B,, | C,D,C, B,,A,,G,, | %54
 F,,!p!A,,B,, C,D,E, | F,2 z F,,2 z | F,,A,,B,, C,D,E, | F,2 z F,,2 z | F,,A,,B,, C,D,E, | %59
 F,2 z C,2 z | F,,A,,B,, C,D,E, | F,D,C, B,,A,,G,, |!mf! F,,A,,B,, C,D,E, | F,2 z !^!F,,2 z | %64
 F,,A,,B,, C,D,E, | F,2 z F,,2 z | F,,A,,B,, C,D,E, | F,2 z F,,2 x x | %68
 !tenuto!C,,E,,F,, G,,A,,B,, |!>(! C,D,C, =B,,A,,!>)!G,, |!f! F,,A,,B,, C,D,E, | F,2 z !^!F,,2 z | %72
 F,,A,,B,, C,D,E, | F,2 z F,,2 z | F,,A,,B,, C,D,E, | F,2 z C,2 z | F,,A,,B,, C,D,E, | %77
 F,D,C, PB,,A,,G,, | F,,A,,B,, C,D,E, | F,2 F, F,,2 z | F,,A,,B,, C,D,E, | F,2 F, F,,2 z | %82
 F,,A,,B,, C,D,E, | F,2 F, F,,2 z | C,,E,,F,, G,,A,,B,, | C,D,C, =B,,A,,G,, | F,,A,,B,, C,D,E, | %87
 F,2 F, F,,2 z | F,,A,,B,, C,D,E, | F,2 F, F,,2 z | F,,A,,B,, C,D,E, | F,2 z C,2 z | %92
 F,,A,,B,, C,D,E, | F,2 z z3 |: G,,2 z C,,2 z | G,,2 z C,,2 z | F,,2 z C,,2 z | F,,2 z C,,2 z | %98
 G,,2 z C,,2 z | G,,2 z C,,2 z | F,,2 z C,,2 z | F,,2 z C,,2 z | G,,2 z C,,2 z | G,,2 z C,,2 z | %104
 F,,2 z C,,2 z | _D,,6 | x2 z C,,2 z | C,,2 z C,,2 z | F,,2 F,, A,,2 C, | F,,2 z z3 :| %110
 F,,2 F,, A,,2 C, |] F,,2 z z3 |] %112
V:5
 x7 | x6 | x6 | x5 A, | x6 | x6 | x6 | x6 |: x6 | x6 | x6 | x6 | x6 | x6 | x6 | x6 | x6 | x6 | x6 | %19
 x6 | x6 | x6 | x6 | x6 :| x6 |: x6 | x6 | x6 | x6 | x6 | x6 | x6 | x6 | x6 | x6 | x6 | x6 | x6 | %38
 x6 | x6 | x6 :| x6 |] x6 | x6 | x6 |[K:F] x6 | x6 | x6 | x6 | x6 | x6 | x6 | x6 | x6 | x6 | x6 | %56
 x6 | x6 | x6 | x6 | x6 | x6 | x6 | x6 | x6 | x6 | x6 | x13/3 c x5/3 | x6 | x6 | x6 | x6 | x6 | %73
 x6 | x6 | x6 | x6 | x6 | x6 | x6 | x6 | x6 | x6 | x6 | x6 | x6 | x6 | x6 | x6 | x6 | x6 | x6 | %92
 x6 | x6 |: x6 | x6 | x6 | x6 | x6 | x6 | x6 | x6 | x6 | x6 | x6 | x6 | x6 | x6 | x6 | x6 :| x6 |] %111
 x6 |] %112

